src/images/35.svg

<svg width="90" height="58" viewBox="0 0 91 60" fill="none" xmlns="http://www.w3.org/2000/svg">
<path d="M20.2756 59.0799C16.329 59.0799 12.5156 58.5199 8.83564 57.3999C5.20898 56.2799 2.27564 54.7333 0.0356445 52.7599L3.95564 43.4799C6.35564 45.2399 8.88898 46.5733 11.5556 47.4799C14.2223 48.3333 16.969 48.7599 19.7956 48.7599C23.1023 48.7599 25.5823 48.1466 27.2356 46.9199C28.889 45.6933 29.7156 43.8799 29.7156 41.4799C29.7156 39.2399 28.9156 37.5599 27.3156 36.4399C25.769 35.2666 23.449 34.6799 20.3556 34.6799H10.9156V24.8399H19.2356C21.9023 24.8399 24.0356 24.2266 25.6356 22.9999C27.2356 21.7199 28.0356 19.9866 28.0356 17.7999C28.0356 15.6666 27.289 14.0399 25.7956 12.9199C24.3023 11.7999 22.1423 11.2399 19.3156 11.2399C13.929 11.2399 9.12898 13.0266 4.91564 16.5999L0.915645 7.47992C3.31564 5.39992 6.22231 3.79992 9.63564 2.67992C13.1023 1.50659 16.729 0.919922 20.5156 0.919922C26.5956 0.919922 31.3423 2.27992 34.7556 4.99992C38.2223 7.66659 39.9556 11.3999 39.9556 16.1999C39.9556 19.5066 39.0223 22.3599 37.1556 24.7599C35.289 27.1066 32.729 28.6799 29.4756 29.4799V28.4399C33.3156 29.0799 36.3023 30.6533 38.4356 33.1599C40.569 35.6666 41.6356 38.8133 41.6356 42.5999C41.6356 47.7199 39.7156 51.7466 35.8756 54.6799C32.089 57.6133 26.889 59.0799 20.2756 59.0799Z" fill="#C10023"/>
<path d="M69.4444 59.0799C66.9377 59.0799 64.4577 58.8133 62.0044 58.2799C59.5511 57.7466 57.2577 57.0266 55.1244 56.1199C52.9911 55.1599 51.2044 54.0399 49.7644 52.7599L53.6844 43.4799C56.0844 45.1866 58.5911 46.4933 61.2044 47.3999C63.8177 48.3066 66.4844 48.7599 69.2044 48.7599C72.2977 48.7599 74.6977 48.0399 76.4044 46.5999C78.1644 45.1066 79.0444 43.0799 79.0444 40.5199C79.0444 37.9599 78.2177 35.9066 76.5644 34.3599C74.9111 32.8133 72.6444 32.0399 69.7644 32.0399C67.7377 32.0399 65.8444 32.4133 64.0844 33.1599C62.3777 33.9066 60.8311 35.0533 59.4444 36.5999H51.4444V1.79992H87.4444V11.9599H63.2044V27.2399H60.3244C61.6577 25.5866 63.4177 24.3066 65.6044 23.3999C67.7911 22.4933 70.2444 22.0399 72.9644 22.0399C76.5911 22.0399 79.7377 22.8133 82.4044 24.3599C85.1244 25.8533 87.2311 27.9599 88.7244 30.6799C90.2177 33.3466 90.9644 36.4933 90.9644 40.1199C90.9644 43.8533 90.0844 47.1599 88.3244 50.0399C86.6177 52.8666 84.1377 55.0799 80.8844 56.6799C77.6844 58.2799 73.8711 59.0799 69.4444 59.0799Z" fill="#C10023"/>
</svg>

<svg xmlns="http://www.w3.org/2000/svg" width="90" height="58" fill="none" viewBox="0 0 91 60"><path fill="#C10023" d="M20.276 59.08q-5.92 0-11.44-1.68-5.44-1.68-8.8-4.64l3.92-9.28q3.6 2.64 7.6 4a26.9 26.9 0 0 0 8.24 1.28q4.959 0 7.44-1.84 2.48-1.84 2.48-5.44 0-3.36-2.4-5.04-2.32-1.76-6.96-1.76h-9.44v-9.84h8.32q4 0 6.4-1.84 2.4-1.92 2.4-5.2 0-3.2-2.24-4.88t-6.48-1.68q-8.08 0-14.4 5.36l-4-9.12q3.6-3.12 8.72-4.8 5.2-1.76 10.88-1.76 9.12 0 14.24 4.08 5.2 4 5.2 11.2 0 4.96-2.8 8.56-2.8 3.52-7.68 4.72v-1.04q5.76.96 8.96 4.72t3.2 9.44q0 7.68-5.76 12.08-5.68 4.4-15.6 4.4M69.444 59.08q-3.759 0-7.44-.8-3.68-.8-6.88-2.16-3.2-1.44-5.36-3.36l3.92-9.28q3.6 2.56 7.52 3.92t8 1.36q4.641 0 7.2-2.16 2.64-2.24 2.64-6.08t-2.48-6.16-6.8-2.32q-3.04 0-5.68 1.12-2.56 1.12-4.64 3.44h-8V1.8h36v10.16h-24.24v15.28h-2.88q2.001-2.48 5.28-3.84t7.36-1.36q5.44 0 9.44 2.32 4.08 2.24 6.32 6.32 2.24 4 2.24 9.44 0 5.6-2.64 9.92-2.559 4.24-7.44 6.64-4.8 2.4-11.44 2.4"/></svg>
